src/assets/icons/logo-header-mobile.svg

<svg width="100" height="32" viewBox="0 0 100 32" fill="none" xmlns="http://www.w3.org/2000/svg">
<g id="Group 1091">
<g id="Group 1070">
<mask id="mask0_1017_38120" style="mask-type:alpha" maskUnits="userSpaceOnUse" x="0" y="0" width="32" height="32">
<ellipse id="Ellipse 157" cx="16" cy="16" rx="16" ry="16" fill="#D9D9D9"/>
</mask>
<g mask="url(#mask0_1017_38120)">
<ellipse id="Ellipse 158" cx="16" cy="16" rx="16" ry="16" fill="white"/>
<g id="Group 1069">
<path id="Rectangle 542" d="M-0.638672 31.9998H17.9213V17.9198C17.9213 15.799 16.2021 14.0798 14.0813 14.0798H-0.638672V31.9998Z" fill="#077453"/>
<path id="Rectangle 545" d="M19.2012 31.9998H37.7612V14.0798H23.0412C20.9204 14.0798 19.2012 15.799 19.2012 17.9198V31.9998Z" fill="#077453"/>
<path id="Rectangle 543" d="M-0.638672 12.7998H14.0813C16.2021 12.7998 17.9213 11.0806 17.9213 8.95981V-5.12017H-0.638672V12.7998Z" fill="#077453"/>
<path id="Rectangle 544" d="M19.2012 8.95981C19.2012 11.0806 20.9204 12.7998 23.0412 12.7998H37.7612V-5.12017H19.2012V8.95981Z" fill="#077453"/>
</g>
</g>
</g>
<g id="inqud">
<path d="M41.268 14.0068H44.5652V25.9529H41.268V14.0068ZM42.9405 12.633C42.4626 12.633 42.0605 12.4737 41.7339 12.1551C41.4074 11.8366 41.2441 11.4423 41.2441 10.9724C41.2441 10.5026 41.4074 10.1083 41.7339 9.78978C42.0605 9.47121 42.4587 9.31193 42.9285 9.31193C43.3984 9.31193 43.7926 9.47121 44.1112 9.78978C44.4377 10.1083 44.601 10.5026 44.601 10.9724C44.601 11.4423 44.4417 11.8366 44.1231 12.1551C43.8125 12.4737 43.4183 12.633 42.9405 12.633Z" fill="#517185"/>
<path d="M58.0478 18.3552V25.9529H54.7507V19.2631C54.7507 18.841 54.6471 18.4627 54.4401 18.1282C54.241 17.7857 53.9702 17.515 53.6277 17.3159C53.2933 17.1168 52.9189 17.0172 52.5048 17.0172C52.0907 17.0172 51.7124 17.1168 51.3699 17.3159C51.0275 17.515 50.7567 17.7857 50.5576 18.1282C50.3585 18.4627 50.259 18.841 50.259 19.2631V25.9529H46.9618L46.9499 14.0068H50.247L50.259 14.8908C50.6572 14.5085 51.1231 14.2099 51.6566 13.9948C52.1982 13.7798 52.7676 13.6723 53.3649 13.6723C54.233 13.6723 55.0175 13.8833 55.7183 14.3054C56.4271 14.7275 56.9926 15.293 57.4147 16.0018C57.8367 16.7026 58.0478 17.4871 58.0478 18.3552Z" fill="#517185"/>
<path d="M65.7694 26.2874C64.6147 26.2874 63.5594 26.0047 62.6037 25.4393C61.656 24.8738 60.8994 24.1132 60.334 23.1575C59.7685 22.2018 59.4858 21.1426 59.4858 19.9799C59.4858 19.1118 59.6491 18.2994 59.9756 17.5428C60.3021 16.7863 60.7521 16.1212 61.3255 15.5478C61.9069 14.9665 62.5759 14.5125 63.3324 14.186C64.089 13.8594 64.9014 13.6962 65.7694 13.6962C66.4623 13.6962 67.0755 13.8475 67.6091 14.1501C68.1427 14.4448 68.5967 14.8271 68.971 15.297V14.0068H72.2681V31.9998H68.971V24.6866C68.5967 25.1486 68.1427 25.5308 67.6091 25.8335C67.0755 26.1361 66.4623 26.2874 65.7694 26.2874ZM65.8172 16.8619C65.2677 16.8619 64.77 17.0053 64.324 17.292C63.878 17.5707 63.5236 17.949 63.2608 18.4269C62.998 18.8967 62.8665 19.4144 62.8665 19.9799C62.8665 20.5612 62.998 21.0869 63.2608 21.5568C63.5236 22.0266 63.878 22.4009 64.324 22.6797C64.77 22.9584 65.2677 23.0978 65.8172 23.0978C66.3588 23.0978 66.8446 22.9584 67.2746 22.6797C67.7127 22.4009 68.0551 22.0266 68.302 21.5568C68.5569 21.0789 68.6843 20.5533 68.6843 19.9799C68.6843 19.4064 68.5569 18.8848 68.302 18.4149C68.0551 17.945 67.7127 17.5707 67.2746 17.292C66.8446 17.0053 66.3588 16.8619 65.8172 16.8619Z" fill="#517185"/>
<path d="M74.214 21.5806V14.0068H77.5111V20.6727C77.5111 21.0948 77.6107 21.4771 77.8098 21.8196C78.0169 22.1541 78.2916 22.4209 78.6341 22.62C78.9765 22.8191 79.3508 22.9186 79.757 22.9186C80.1711 22.9186 80.5494 22.8191 80.8919 22.62C81.2343 22.4209 81.5051 22.1541 81.7042 21.8196C81.9033 21.4771 82.0029 21.0948 82.0029 20.6727V14.0068H85.3L85.3119 25.9529H82.0148L82.0029 25.045C81.6047 25.4273 81.1348 25.726 80.5932 25.941C80.0596 26.156 79.4942 26.2635 78.8969 26.2635C78.0368 26.2635 77.2523 26.0525 76.5435 25.6304C75.8347 25.2083 75.2693 24.6468 74.8472 23.946C74.4251 23.2372 74.214 22.4487 74.214 21.5806Z" fill="#517185"/>
<path d="M96.2583 8.03369H99.5554V25.9529H96.2583V24.6866C95.8919 25.1486 95.438 25.5269 94.8964 25.8215C94.3549 26.1162 93.7376 26.2635 93.0448 26.2635C92.1767 26.2635 91.3644 26.1003 90.6078 25.7737C89.8512 25.4472 89.1822 24.9972 88.6008 24.4238C88.0274 23.8425 87.5774 23.1735 87.2509 22.4169C86.9244 21.6603 86.7611 20.8479 86.7611 19.9799C86.7611 19.1118 86.9244 18.2994 87.2509 17.5428C87.5774 16.7863 88.0274 16.1212 88.6008 15.5478C89.1822 14.9665 89.8512 14.5125 90.6078 14.186C91.3644 13.8594 92.1767 13.6962 93.0448 13.6962C93.7376 13.6962 94.3549 13.8435 94.8964 14.1382C95.438 14.4249 95.8919 14.8032 96.2583 15.2731V8.03369ZM93.0926 23.0978C93.6341 23.0978 94.1239 22.9584 94.5619 22.6797C94.9999 22.4009 95.3464 22.0266 95.6012 21.5568C95.8561 21.0789 95.9835 20.5533 95.9835 19.9799C95.9835 19.3985 95.8561 18.8728 95.6012 18.403C95.3464 17.9331 94.9999 17.5588 94.5619 17.28C94.1239 17.0013 93.6341 16.8619 93.0926 16.8619C92.543 16.8619 92.0453 17.0013 91.5993 17.28C91.1533 17.5588 90.7989 17.9371 90.5361 18.4149C90.2733 18.8848 90.1419 19.4064 90.1419 19.9799C90.1419 20.5533 90.2733 21.0789 90.5361 21.5568C90.8069 22.0266 91.1653 22.4009 91.6112 22.6797C92.0572 22.9584 92.551 23.0978 93.0926 23.0978Z" fill="#517185"/>
</g>
</g>
</svg>

<svg width="100" height="32" fill="none" xmlns="http://www.w3.org/2000/svg"><mask id="a" style="mask-type:alpha" maskUnits="userSpaceOnUse" x="0" y="0" width="32" height="32"><circle cx="16" cy="16" fill="#D9D9D9" r="16"/></mask><g mask="url(#a)"><circle cx="16" cy="16" fill="#fff" r="16"/><g fill="#077453"><path d="M-.639 32h18.56V17.92a3.84 3.84 0 0 0-3.84-3.84H-.639V32zM19.201 32h18.56V14.08h-14.72a3.84 3.84 0 0 0-3.84 3.84V32zM-.639 12.8h14.72a3.84 3.84 0 0 0 3.84-3.84V-5.12H-.639V12.8zM19.201 8.96a3.84 3.84 0 0 0 3.84 3.84h14.72V-5.12h-18.56V8.96z"/></g></g><g fill="#517185"><path d="M41.268 14.007h3.297v11.946h-3.297V14.007zm1.672-1.374c-.477 0-.88-.16-1.206-.478a1.586 1.586 0 0 1-.49-1.183c0-.47.163-.864.49-1.182a1.647 1.647 0 0 1 1.194-.478c.47 0 .865.16 1.183.478.327.318.49.713.49 1.182 0 .47-.16.865-.478 1.183-.31.319-.705.478-1.182.478zM58.048 18.355v7.598H54.75v-6.69c0-.422-.104-.8-.31-1.135-.2-.342-.47-.613-.813-.812a2.153 2.153 0 0 0-1.123-.299 2.217 2.217 0 0 0-1.947 1.111c-.2.335-.299.713-.299 1.135v6.69h-3.297l-.012-11.946h3.297l.012.884c.398-.383.864-.681 1.398-.896a4.588 4.588 0 0 1 1.708-.323c.868 0 1.652.211 2.353.633a4.808 4.808 0 0 1 1.697 1.697c.422.7.633 1.485.633 2.353zM65.77 26.287c-1.155 0-2.21-.282-3.166-.848a6.423 6.423 0 0 1-2.27-2.282c-.566-.955-.848-2.014-.848-3.177 0-.868.163-1.68.49-2.437a6.4 6.4 0 0 1 3.357-3.357 6.083 6.083 0 0 1 2.436-.49c.693 0 1.306.152 1.84.454a4.51 4.51 0 0 1 1.362 1.147v-1.29h3.297V32h-3.297v-7.313a4.75 4.75 0 0 1-1.362 1.146c-.533.303-1.147.454-1.84.454zm.047-9.425c-.55 0-1.047.143-1.493.43-.446.279-.8.657-1.063 1.135-.263.47-.395.987-.395 1.553 0 .581.132 1.107.395 1.577s.617.844 1.063 1.123a2.76 2.76 0 0 0 1.493.418c.542 0 1.028-.14 1.458-.418a2.91 2.91 0 0 0 1.027-1.123 3.298 3.298 0 0 0 .382-1.577c0-.574-.127-1.095-.382-1.565a2.909 2.909 0 0 0-1.027-1.123 2.568 2.568 0 0 0-1.458-.43zM74.214 21.58v-7.573h3.297v6.666c0 .422.1.804.299 1.147.207.334.482.6.824.8.343.2.717.299 1.123.299.414 0 .792-.1 1.135-.299.342-.2.613-.466.812-.8.2-.343.299-.725.299-1.147v-6.666H85.3l.012 11.946h-3.297l-.012-.908a4.304 4.304 0 0 1-1.41.896 4.496 4.496 0 0 1-1.696.323c-.86 0-1.645-.212-2.354-.634a4.84 4.84 0 0 1-1.696-1.684 4.535 4.535 0 0 1-.633-2.365zM96.258 8.034h3.297v17.919h-3.297v-1.266c-.366.462-.82.84-1.362 1.134-.541.295-1.158.442-1.851.442-.868 0-1.68-.163-2.437-.49a6.5 6.5 0 0 1-2.007-1.35 6.498 6.498 0 0 1-1.35-2.006 6.084 6.084 0 0 1-.49-2.437c0-.868.163-1.68.49-2.437a6.4 6.4 0 0 1 3.357-3.357 6.082 6.082 0 0 1 2.437-.49c.693 0 1.31.148 1.851.442a4.19 4.19 0 0 1 1.362 1.135v-7.24zm-3.165 15.064a2.68 2.68 0 0 0 1.469-.418 3.003 3.003 0 0 0 1.04-1.123 3.298 3.298 0 0 0 .382-1.577c0-.582-.128-1.107-.383-1.577a3.003 3.003 0 0 0-1.04-1.123 2.68 2.68 0 0 0-1.468-.418c-.55 0-1.048.14-1.494.418-.446.279-.8.657-1.063 1.135a3.15 3.15 0 0 0-.394 1.565c0 .573.131 1.099.394 1.577.27.47.63.844 1.075 1.123.446.278.94.418 1.482.418z"/></g></svg>
